tools/port64/android-sdk.svg

<?xml version="1.0" encoding="UTF-8" standalone="no"?>
<svg xmlns="http://www.w3.org/2000/svg" height="32" width="32" version="1">
 <rect opacity=".2" transform="matrix(0,-1,-1,0,0,0)" rx="14" ry="14" height="28" width="28" y="-30" x="-31"/>
 <rect transform="matrix(0,-1,-1,0,0,0)" rx="14" ry="14" height="28" width="28" y="-30" x="-30" fill="#32867d"/>
 <g opacity=".2" transform="translate(0 .9997)">
  <path d="m9.0841 12.539"/>
  <path d="m17.461 10.779"/>
  <path d="m9.044 13c-0.5753 0-1.044 0.53-1.044 1.183v4.6305c0 0.653 0.4687 1.186 1.044 1.186s0.956-0.533 0.956-1.186v-4.631c0-0.654-0.38-1.184-0.956-1.184"/>
  <path d="m11 13-0.000245 8.5c-0.000007 0.23573 0.26439 0.5 0.50012 0.5h1.5v1.8751c0 0.622 0.396 1.125 1 1.125 0.60019 0 1.0199-0.50359 1-1.1249v-1.875h1v1.8751c0 0.622 0.396 1.125 1 1.125 0.60019 0 1-0.51173 1-1.1249v-1.875h1.5c0.236 0 0.5-0.264 0.5-0.5v-8.5z"/>
  <path d="m22.044 13c-0.575 0-1.044 0.53-1.044 1.183v4.6305c0 0.653 0.469 1.186 1.044 1.186s0.956-0.533 0.956-1.186v-4.6305c0-0.654-0.38-1.184-0.956-1.184"/>
  <path d="m12.865 5.9023-0.865 0.5 1.197 2.0743c-2.188 1.0571-2.197 3.5234-2.197 3.5234h9s-0.01-2.4665-2.197-3.5234l1.197-2.0743-0.86523-0.5-1.2949 2.2422c-0.397-0.0888-0.835-0.1445-1.338-0.1445-0.504 0-0.944 0.0555-1.342 0.1445l-1.295-2.2422zm0.637 4.0977c0.277 0 0.498 0.223 0.498 0.498s-0.224 0.502-0.498 0.502c-0.277 0-0.502-0.224-0.502-0.502 0-0.275 0.225-0.498 0.502-0.498zm4 0c0.277 0 0.498 0.223 0.498 0.498s-0.224 0.502-0.498 0.502c-0.277 0-0.502-0.224-0.502-0.502 0-0.275 0.225-0.498 0.502-0.498z"/>
 </g>
 <g fill="#7dff7c">
  <path d="m9.0841 12.539"/>
  <path d="m17.461 10.779"/>
  <path d="m9.044 13c-0.5753 0-1.044 0.53-1.044 1.183v4.6305c0 0.653 0.4687 1.186 1.044 1.186s0.956-0.533 0.956-1.186v-4.6305c0-0.654-0.38-1.184-0.956-1.184"/>
  <path d="m11 13-0.000245 8.5c-0.000007 0.23573 0.26439 0.5 0.50012 0.5h1.5v1.8751c0 0.622 0.396 1.125 1 1.125 0.60019 0 1.0199-0.50359 1-1.1249v-1.875h1v1.8751c0 0.622 0.396 1.125 1 1.125 0.60019 0 1-0.51173 1-1.1249v-1.875h1.5c0.236 0 0.5-0.264 0.5-0.5v-8.5z"/>
  <path d="m22.044 13c-0.575 0-1.044 0.53-1.044 1.183v4.6305c0 0.653 0.469 1.186 1.044 1.186s0.956-0.533 0.956-1.186v-4.6305c0-0.654-0.38-1.184-0.956-1.184"/>
  <path d="m12.865 5.9023-0.865 0.5 1.197 2.0743c-2.188 1.0571-2.197 3.5234-2.197 3.5234h9s-0.01-2.4665-2.197-3.5234l1.197-2.0743-0.86523-0.5-1.2949 2.2422c-0.397-0.0888-0.835-0.1445-1.338-0.1445-0.504 0-0.944 0.0555-1.342 0.1445l-1.295-2.2422zm0.637 4.0977c0.277 0 0.498 0.223 0.498 0.498s-0.224 0.502-0.498 0.502c-0.277 0-0.502-0.224-0.502-0.502 0-0.275 0.225-0.498 0.502-0.498zm4 0c0.277 0 0.498 0.223 0.498 0.498s-0.224 0.502-0.498 0.502c-0.277 0-0.502-0.224-0.502-0.502 0-0.275 0.225-0.498 0.502-0.498z"/>
 </g>
 <path opacity=".1" fill="#fff" d="m16 2c-7.756 0-14 6.244-14 14 0 0.169 0.0195 0.333 0.0254 0.5 0.2637-7.5206 6.3874-13.5 13.975-13.5 7.587 0 13.711 5.9794 13.975 13.5 0.005-0.167 0.025-0.331 0.025-0.5 0-7.756-6.244-14-14-14z"/>
</svg>

<?xml version="1.0" encoding="UTF-8" standalone="no"?>
<svg
   xmlns:dc="http://purl.org/dc/elements/1.1/"
   xmlns:cc="http://creativecommons.org/ns#"
   xmlns:rdf="http://www.w3.org/1999/02/22-rdf-syntax-ns#"
   xmlns:svg="http://www.w3.org/2000/svg"
   xmlns="http://www.w3.org/2000/svg"
   xmlns:sodipodi="http://sodipodi.sourceforge.net/DTD/sodipodi-0.dtd"
   xmlns:inkscape="http://www.inkscape.org/namespaces/inkscape"
   height="64"
   width="64"
   version="1"
   id="svg2"
   inkscape:version="0.91 r13725"
   sodipodi:docname="android-sdk.svg">
  <metadata
     id="metadata42">
    <rdf:RDF>
      <cc:Work
         rdf:about="">
        <dc:format>image/svg+xml</dc:format>
        <dc:type
           rdf:resource="http://purl.org/dc/dcmitype/StillImage" />
        <dc:title></dc:title>
      </cc:Work>
    </rdf:RDF>
  </metadata>
  <defs
     id="defs40" />
  <sodipodi:namedview
     pagecolor="#ffffff"
     bordercolor="#666666"
     borderopacity="1"
     objecttolerance="10"
     gridtolerance="10"
     guidetolerance="10"
     inkscape:pageopacity="0"
     inkscape:pageshadow="2"
     inkscape:window-width="1535"
     inkscape:window-height="876"
     id="namedview38"
     showgrid="false"
     inkscape:zoom="4.54"
     inkscape:cx="-5.7627119"
     inkscape:cy="16"
     inkscape:window-x="65"
     inkscape:window-y="24"
     inkscape:window-maximized="1"
     inkscape:current-layer="svg2" />
  <rect
     style="opacity:0.2"
     transform="matrix(0,-1,-1,0,0,0)"
     rx="27.999599"
     ry="27.999599"
     height="55.999199"
     width="55.999199"
     y="-59.999199"
     x="-61"
     id="rect4" />
  <rect
     style="fill:#32867d"
     transform="matrix(0,-1,-1,0,0,0)"
     rx="27.999599"
     ry="27.999599"
     height="55.999199"
     width="55.999199"
     y="-59.999199"
     x="-60.000027"
     id="rect6" />
  <g
     style="opacity:0.2"
     transform="matrix(1.9999714,0,0,1.9999714,5.72e-5,1.000258)"
     id="g8">
    <path
       inkscape:connector-curvature="0"
       d="M 9.0841,12.539"
       id="path10" />
    <path
       inkscape:connector-curvature="0"
       d="M 17.461,10.779"
       id="path12" />
    <path
       inkscape:connector-curvature="0"
       d="M 9.044,13 C 8.4687,13 8,13.53 8,14.183 l 0,4.6305 c 0,0.653 0.4687,1.186 1.044,1.186 0.5753,0 0.956,-0.533 0.956,-1.186 l 0,-4.631 c 0,-0.654 -0.38,-1.184 -0.956,-1.184"
       id="path14" />
    <path
       inkscape:connector-curvature="0"
       d="m 11,13 -2.45e-4,8.5 c -7e-6,0.23573 0.26439,0.5 0.50012,0.5 l 1.5,0 0,1.8751 c 0,0.622 0.396,1.125 1,1.125 0.60019,0 1.0199,-0.50359 1,-1.1249 l 0,-1.875 1,0 0,1.8751 c 0,0.622 0.396,1.125 1,1.125 0.60019,0 1,-0.51173 1,-1.1249 l 0,-1.875 1.5,0 c 0.236,0 0.5,-0.264 0.5,-0.5 l 0,-8.5 z"
       id="path16" />
    <path
       inkscape:connector-curvature="0"
       d="M 22.044,13 C 21.469,13 21,13.53 21,14.183 l 0,4.6305 c 0,0.653 0.469,1.186 1.044,1.186 0.575,0 0.956,-0.533 0.956,-1.186 l 0,-4.6305 c 0,-0.654 -0.38,-1.184 -0.956,-1.184"
       id="path18" />
    <path
       inkscape:connector-curvature="0"
       d="M 12.865,5.9023 12,6.4023 13.197,8.4766 C 11.009,9.5337 11,12 11,12 l 9,0 C 20,12 19.99,9.5335 17.803,8.4766 L 19,6.4023 l -0.86523,-0.5 -1.2949,2.2422 C 16.44287,8.0557 16.00487,8 15.50187,8 c -0.504,0 -0.944,0.0555 -1.342,0.1445 l -1.295,-2.2422 z M 13.502,10 C 13.779,10 14,10.223 14,10.498 14,10.773 13.776,11 13.502,11 13.225,11 13,10.776 13,10.498 13,10.223 13.225,10 13.502,10 Z m 4,0 C 17.779,10 18,10.223 18,10.498 18,10.773 17.776,11 17.502,11 17.225,11 17,10.776 17,10.498 17,10.223 17.225,10 17.502,10 Z"
       id="path20" />
  </g>
  <g
     style="fill:#7dff7c"
     id="g22"
     transform="matrix(1.9999714,0,0,1.9999714,5.72e-5,8.866e-4)">
    <path
       inkscape:connector-curvature="0"
       d="M 9.0841,12.539"
       id="path24" />
    <path
       inkscape:connector-curvature="0"
       d="M 17.461,10.779"
       id="path26" />
    <path
       inkscape:connector-curvature="0"
       d="M 9.044,13 C 8.4687,13 8,13.53 8,14.183 l 0,4.6305 c 0,0.653 0.4687,1.186 1.044,1.186 0.5753,0 0.956,-0.533 0.956,-1.186 L 10,14.183 C 10,13.529 9.62,12.999 9.044,12.999"
       id="path28" />
    <path
       inkscape:connector-curvature="0"
       d="m 11,13 -2.45e-4,8.5 c -7e-6,0.23573 0.26439,0.5 0.50012,0.5 l 1.5,0 0,1.8751 c 0,0.622 0.396,1.125 1,1.125 0.60019,0 1.0199,-0.50359 1,-1.1249 l 0,-1.875 1,0 0,1.8751 c 0,0.622 0.396,1.125 1,1.125 0.60019,0 1,-0.51173 1,-1.1249 l 0,-1.875 1.5,0 c 0.236,0 0.5,-0.264 0.5,-0.5 l 0,-8.5 z"
       id="path30" />
    <path
       inkscape:connector-curvature="0"
       d="M 22.044,13 C 21.469,13 21,13.53 21,14.183 l 0,4.6305 c 0,0.653 0.469,1.186 1.044,1.186 0.575,0 0.956,-0.533 0.956,-1.186 l 0,-4.6305 c 0,-0.654 -0.38,-1.184 -0.956,-1.184"
       id="path32" />
    <path
       inkscape:connector-curvature="0"
       d="M 12.865,5.9023 12,6.4023 13.197,8.4766 C 11.009,9.5337 11,12 11,12 l 9,0 C 20,12 19.99,9.5335 17.803,8.4766 L 19,6.4023 l -0.86523,-0.5 -1.2949,2.2422 C 16.44287,8.0557 16.00487,8 15.50187,8 c -0.504,0 -0.944,0.0555 -1.342,0.1445 l -1.295,-2.2422 z M 13.502,10 C 13.779,10 14,10.223 14,10.498 14,10.773 13.776,11 13.502,11 13.225,11 13,10.776 13,10.498 13,10.223 13.225,10 13.502,10 Z m 4,0 C 17.779,10 18,10.223 18,10.498 18,10.773 17.776,11 17.502,11 17.225,11 17,10.776 17,10.498 17,10.223 17.225,10 17.502,10 Z"
       id="path34" />
  </g>
  <path
     style="opacity:0.1;fill:#ffffff"
     d="M 32 4 C 16.488221 4 4 16.488222 4 32 C 4 32.113554 4.0112846 32.224034 4.0175781 32.335938 C 4.3691162 17.134398 16.710945 5 32 5 C 47.289054 5 59.630884 17.134398 59.982422 32.335938 C 59.988797 32.224034 60 32.113554 60 32 C 60 16.488222 47.511778 4 32 4 z "
     id="path36" />
</svg>
